X:1
T:He’s Everything to Me
T:He’s Everything to Me
T:Hampton Haygood Sewell
T:Kate Byron or Kate Ulmer, 1907
T:Public Domain Courtesy of the Cyber Hymnal™
T:Public Domain Courtesy of the Cyber Hymnal™
C:Hampton Haygood Sewell
Z:Public Domain
Z:Courtesy of the Cyber Hymnal™
%%score ( 1 2 ) ( 3 4 )
L:1/8
M:6/8
K:Ab
V:1 treble 
V:2 treble 
V:3 bass 
V:4 bass 
V:1
 [CE] | [CF]2 [CE] [CA]2 [DB] | [Ec]3 [CA]2 [Ec] | [Fd]2 [Fd] [FA]2 [_FB] | [Ec]3- [Ec]2 [Ec] | %5
w: 1.~In|sin I once had|wan- dered, All|wear- y, sad, and|lone, * Till|
w: 2.~In|sin no more I’ll|wan- der; He’s|pi- lot, friend, and|guide; * He|
w: 3.~No|long- er will I|stray from His|ten- der, lov- ing|care; * Like|
 [Ec]2 [DB] [DF]2 [DG] | [DB]3 [CA]2 [Ec] | [=Dc]2 [DB] [DA]2 [DF] | [EB]3- [EB]2 [DE] | %9
w: Je- sus through His|mer- cy A-|dopt- ed me His|own. * E’er|
w: brings me joy and|sing- ing; His|Spir- it doth a-|bide. * A|
w: Him to be my|pur- pose, My|aim, my cons- tant|prayer. * And|
 [CF]2 [CE] [CA]2 [DB] | [Ec]3 [CA]2 [Ec] | [Fd]2 [Fd] [FA]2 [_FB] | [Ec]3- [Ec]2 [Ec] | %13
w: since I learned to|trust Him, His|grace doth make me|free, * And|
w: bless- èd, lov- ing|Sav- ior, The|Lamb of Cal- va-|ry! * He|
w: when He bids me|wel- come Through-|out e- ter- ni-|ty, * I’ll|
 [Ae]2 [Ae] [Af]2 [Ec] | ([_Ge]2 [Fd]) [FA]2 [_FB] | [Ec]2 [CE] [DB]2 [DG] | [CA]3- [CA]2 || %17
w: now I feel His|par- * don, He’s|ev- ery- thing to|me. *|
w: pur- chased my re-|demp- * tion. He’s|ev- ery- thing to|me. *|
w: praise His name for-|ev- * er. He’s|ev- ery- thing to|me. *|
"^Refrain" [Ec] | [Ec]2 [CE] [CF]2 [CA] | c3- [Ec]2 [Ec] | [Ec]2 [CE] [CB]2 [CA] | G3- [DG]2 [DE] | %22
w: |||||
w: He’s|ev- ery- thing to|me, From sin|* He sets me|free, His peace|
w: |||||
 [DE]2 [DG] [EB]2 [Ec] | [Gd] [Gd]4 [Gd] | [Gd]2 [Gd] [Ge]2 [EB] | c3- [Ec]2 [Ec] | %26
w: ||||
w: * and love my|por- tion Through|all e- ter- ni-|ty! He’s ev-|
w: ||||
 [Ec]2 [CE] [CF]2 [CA] | c3- [Ec]2 [Ec] | [Ec]2 [Ec] [Af]2 [_Ge] | d3- [Fd]2 [Fd] | %30
w: ||||
w: * ery- thing to|me, More than|* I dreamed could|be. O praise|
w: ||||
 [FA]2 [FA] [FB]2 [FB] | [Ec] [Ee]4 [Fd] | [Ec]2 [CE] [DB]2 [DG] | [CA]3- [CA]2 |] %34
w: ||||
w: * His name for-|ev- er! He’s|ev- ery- thing to|me. *|
w: ||||
V:2
 x | x6 | x6 | x6 | x6 | x6 | x6 | x6 | x6 | x6 | x6 | x6 | x6 | x6 | x6 | x6 | x5 || x | x6 | %19
 E2 F x3 | x6 | D2 D x3 | x6 | x6 | x6 | E2 F x3 | x6 | E2 F x3 | x6 | F2 F x3 | x6 | x6 | x6 | %33
 x5 |] %34
V:3
 [A,,A,] | [A,,A,]2 [A,,A,] [A,,E,]2 [A,,E,] | [A,,A,]3 [A,,E,]2 [A,,A,] | %3
 [D,A,]2 [D,A,] [D,A,]2 [D,A,] | [A,,A,]3- [A,,A,]2 [A,,A,] | [E,G,]2 [E,G,] [E,G,]2 E, | %6
 [A,,E,]3 [A,,E,]2 [A,,A,] | [B,,F,]2 [B,,F,] [B,,B,]2 [B,,A,] | [E,G,]3- [E,G,]2 [E,G,] | %9
 [A,,A,]2 [A,,A,] [A,,E,]2 [A,,E,] | [A,,A,]3 [A,,E,]2 [A,,A,] | [D,A,]2 [D,A,] [D,A,]2 [D,A,] | %12
 [A,,A,]3- [A,,A,]2 A, | [A,C]2 [A,C] [A,C]2 A, | A,3 [D,D]2 [D,A,] | %15
 [E,A,]2 [E,A,] [E,G,]2 [E,B,] | [A,,A,]3- [A,,A,]2 || [A,,A,] | %18
 [A,,A,]2 [A,,A,] [A,,A,]2 [A,,A,] | A,2 A, [A,,A,]2 [A,,A,] | [A,,A,]2 [A,,A,] [A,,A,]2 [A,,A,] | %21
 B,2 B, [E,B,]2 [E,G,] | [E,G,]2 [E,B,] [E,G,]2 [E,A,] | [E,B,] [E,B,]4 [E,B,] | %24
 [E,B,]2 [E,B,] [E,B,]2 [E,G,] | A,2 A, [A,,A,]2 [A,,A,] | [A,,A,]2 [A,,A,] [A,,A,]2 [A,,A,] | %27
 A,2 A, [A,,A,]2 [A,,A,] | [A,,A,]2 [A,,A,] [A,,C]2 [A,,C] | A,2 A, [D,A,]2 [D,A,] | %30
 [D,D]2 [D,D] [D,A,]2 [D,A,] | [E,A,] [C,A,]4 [D,A,] | [E,A,]2 [E,A,] [E,G,]2 E, | %33
 [A,,E,]3- [A,,E,]2 |] %34
V:4
 x | x6 | x6 | x6 | x6 | x5 E, | x6 | x6 | x6 | x6 | x6 | x6 | x6 | x6 | (C,2 D,) x3 | x6 | x5 || %17
 x | x6 | A,,3- x3 | x6 | E,3- x3 | x6 | x6 | x6 | A,,3- x3 | x6 | A,,3- x3 | x6 | D,3- x3 | x6 | %31
 x6 | x6 | x5 |] %34

